img/sponsors/logo-2.svg

<svg height="51" viewBox="0 0 215 51" width="215" xmlns="http://www.w3.org/2000/svg"><g fill="#fff" fill-rule="evenodd"><path d="m21.6685.3498-19.7577 7.8646c-2.1715 1.1251-2.2444 3.1521.5857 4.5586l16.757 9.4237c1.1049.5529 1.9927 2.0193 1.9747 3.2677l-.1796 14.9782c-.0185 1.2503-.832 1.6586-1.8149.9131l-11.5564-8.7655c-.9838-.746-1.8167-2.3718-1.8505-3.6176l-.2917-7.9204c-.0666-.6497-.4012-1.1737-1.0684-1.556l-4.4667-2.6167.4781 14.9147c.0365 1.2422.8681 2.872 1.8518 3.6176l19.489 14.7796c.9833.7442 2.6091.7622 3.6086.0459.8698-.5984 1.248-1.5965 1.2165-2.9175l.0126-21.8401c.0153-1.2462.9243-2.7184 2.0215-3.2767l12.0166-6.083c1.0977-.5525 1.9472.0135 1.8824 1.2565l-.629 12.0715c-.0612 1.2481-.2777 2.4673-1.2804 3.1886l-8.1887 5.8052c-1.0252.7757-1.7829 1.7509-1.7181 3.3263v4.6508l14.5324-10.4484c1.0018-.719 1.8716-2.3254 1.936-3.5658l1.0932-21.1008c0-1.5348-.8267-2.6266-1.9684-3.0706-.7974-.3084-2.1476-.2417-3.257.3071l-17.1158 8.8744c-1.095.5542-2.8945.5542-3.9958 0l-10.5128-5.2888c-1.099-.5502-1.0657-1.3827.0824-1.8311l10.1445-4.0421c1.1485-.4548 3.0156-.4651 4.166-.0243l5.807 2.1318c.6407.2625 1.1535.1666 1.6226-.054l6.0227-2.8446-13.4866-5.138c-.5627-.2156-1.3007-.3237-2.0417-.3237-.7677 0-1.5385.1162-2.1211.3498z" fill-opacity=".7"/><path d="m65.3597 17.0183c3.8008 0 5.7003 1.4889 5.7003 4.4658v.7446c0 2.9783-1.8995 4.4663-5.7003 4.4663h-9.4989v-2.9774h8.8663c1.266 0 1.9008-.4957 1.9008-1.4889v-.7446c0-.9923-.6348-1.488-1.9008-1.488h-3.1665c-3.8003 0-5.6998-1.4889-5.6998-4.4672 0-2.976 1.8995-4.4649 5.6998-4.4649h9.4994v2.9774h-8.8654c-1.2679 0-1.9009.497-1.9009 1.4875 0 .9932.633 1.4894 1.9009 1.4894z"/><path d="m81.9644 11.0681v2.9783h-1.8995v6.6976c0 1.9859 1.0554 2.9782 3.1669 2.9782v2.9778h-2.5334c-3.3771 0-5.0669-1.985-5.0669-5.956v-6.6976h-1.8995v-2.9783h1.8995v-2.9764h4.4334v2.9764z"/><path d="m96.6716 19.9815-4.4321.0144c-1.2674.0491-1.9008.5461-1.9008 1.488v.7451c0 .9932.6334 1.4889 1.9008 1.4889h4.4321zm4.4344 6.7133h-9.5013c-3.7986 0-5.6994-1.488-5.6994-4.4658v-.7595c0-2.9175 1.9008-4.3767 5.6994-4.3767h3.1674c1.266 0 1.8995-.5204 1.8995-1.5636 0-.991-.6335-1.488-1.8995-1.488h-8.8668v-2.9769h9.5002c3.7995 0 5.7005 1.6118 5.7005 4.8368z"/><path d="m117.076 23.7178.012 2.9769h-8.245c-3.377 0-5.066-1.9846-5.066-5.9547v-3.7216c0-3.9705 1.689-5.9542 5.066-5.9542h8.245v2.9769h-5.71c-2.113 0-3.167.9923-3.167 2.9773v3.7216c0 1.9851 1.054 2.9778 3.167 2.9778z"/><path d="m124.182 22.9886v3.6928h-4.432v-4.4658l.012-16.377h4.42v11.7775l6.333-6.5657h5.066l-8.056 8.3517 8.056 7.2793h-5.066l-5.345-4.839z"/><path d="m147.12 17.0183c3.799 0 5.699 1.4889 5.699 4.4658v.7446c0 2.9783-1.9 4.4663-5.699 4.4663h-9.501v-2.9774h8.867c1.267 0 1.899-.4957 1.899-1.4889v-.7446c0-.9923-.632-1.488-1.899-1.488h-3.165c-3.801 0-5.702-1.4889-5.702-4.4672 0-2.976 1.901-4.4649 5.702-4.4649h9.498v2.9774h-8.864c-1.268 0-1.901.497-1.901 1.4875 0 .9932.633 1.4894 1.901 1.4894zm21.671 6.6995.012 2.9769h-8.244c-3.378 0-5.068-1.9846-5.068-5.9547v-3.7216c0-3.9705 1.69-5.9542 5.068-5.9542h8.244v2.9769h-5.712c-2.111 0-3.165.9923-3.165 2.9773v3.7216c0 1.9851 1.054 2.9778 3.165 2.9778zm17.872 2.977h-9.499c-3.801 0-5.701-1.488-5.701-4.4658v-.7595c0-2.9175 1.9-4.3767 5.701-4.3767h3.166c1.267 0 1.9-.5204 1.9-1.5636 0-.991-.633-1.488-1.9-1.488h-8.867v-2.9769h9.5c3.799 0 5.7 1.6118 5.7 4.8368zm7.106-5.9683c0 1.9851 1.054 2.9778 3.165 2.9778v2.9774h-2.532c-3.38 0-5.068-1.9842-5.068-5.9552v-14.8877h4.435zm5.841-5.1972c0-2.9764 1.688-4.4649 5.066-4.4649h4.431c3.8 0 5.701 1.4885 5.701 4.4649v.7447c0 2.9769-1.901 4.4662-5.701 4.4662h-3.164c-1.267 0-1.901.4953-1.901 1.4885s.634 1.4893 1.901 1.4893h8.865v2.9769h-9.498c-3.801 0-5.7-1.6131-5.7-4.839zm-17.38 4.4522-4.432.0144c-1.268.0491-1.901.5461-1.901 1.488v.7451c0 .9932.633 1.4889 1.901 1.4889h4.432zm21.812-2.1443c.397-.0505.822-.0752 1.268-.0752h3.165c1.269 0 1.901-.4962 1.901-1.488v-.7447c0-.9909-.632-1.488-1.901-1.488h-2.532c-1.267 0-1.901.5061-1.901 1.5182z" fill-opacity=".7"/><path d="m143.333 36.8793h1.23c.821 0 1.232-.3296 1.232-.986v-1.2314c0-.6564-.411-.9837-1.232-.9837h-1.23zm2.215-4.1871c1.313 0 1.97.6568 1.97 1.9697v1.2314c0 1.3151-.657 1.9697-1.97 1.9697h-2.215v1.7253h-1.721l-.004-6.8961z"/><path d="m149.981 37.8628h-1.723v-5.1704h3.941c1.313 0 1.971.6565 1.971 1.9693h-1.726c0-.6564-.41-.9837-1.229-.9837h-1.234z"/><path d="m156.633 37.8542h-1.725v-5.1717h1.725zm-1.479-5.6643c-.165 0-.246-.0828-.246-.2458v-.7393c0-.1652.081-.2462.246-.2462h1.231c.165 0 .248.081.248.2462v.7393c0 .163-.083.2458-.248.2458z"/><path d="m159.338 37.8628-2.216-5.1704h1.724l1.48 3.695 1.475-3.695h1.726l-2.189 5.1704z"/><path d="m168.207 35.6411-1.726.0064c-.491.0148-.737.1814-.737.4939v.2458c0 .3273.246.4921.737.4921h1.726zm1.723 2.2219h-3.694c-1.475 0-2.215-.4921-2.215-1.4758v-.2522c0-.9648.74-1.4483 2.215-1.4483h1.233c.492 0 .738-.1711.738-.5169 0-.3291-.246-.4916-.738-.4916h-3.448v-.986h3.695c1.477 0 2.214.5339 2.214 1.6005z"/><path d="m173.871 32.6861v.9837h-.737v2.2174c0 .6582.408.9873 1.229.9873v.9842h-.984c-1.313 0-1.971-.6586-1.971-1.9715v-2.2174h-.737v-.9837h.737v-.9833h1.726v.9833z"/><path d="m176.826 34.9326c.155-.0166.317-.0252.495-.0252h1.231c.492 0 .737-.1621.737-.4916v-.2459c0-.3291-.245-.4921-.737-.4921h-.985c-.495 0-.741.1671-.741.5002zm-1.723-.7627c0-.9855.657-1.4776 1.969-1.4776h1.726c1.477 0 2.218.4921 2.218 1.4776v.2459c0 .9837-.741 1.4776-2.218 1.4776h-1.231c-.495 0-.741.1648-.741.4939 0 .3273.246.4921.741.4921h3.449v.9833h-3.695c-1.478 0-2.218-.5335-2.218-1.6006z"/><path d="m191.357 36.8793.007.9837h-3.209c-1.313 0-1.968-.6546-1.968-1.9697v-1.2314c0-1.3129.655-1.9697 1.968-1.9697h3.209v.986h-2.221c-.824 0-1.234.3273-1.234.9837v1.2314c0 .6564.41.986 1.234.986z"/><path d="m193.821 35.883c0 .6564.41.9855 1.232.9855v.9856h-.984c-1.317 0-1.971-.6583-1.971-1.9711v-4.9246h1.723z"/><path d="m199.979 34.6618c0-.6565-.413-.9838-1.234-.9838-.82 0-1.229.3273-1.229.9838v1.2313c0 .6565.409.986 1.229.986.821 0 1.234-.3295 1.234-.986zm-2.218 3.2011c-1.313 0-1.971-.6546-1.971-1.9698v-1.2313c0-1.3129.658-1.9698 1.971-1.9698h2.218c1.146 0 1.723.6569 1.723 1.9698v1.2313c0 1.3152-.658 1.9698-1.971 1.9698z"/><path d="m206.627 32.6922h1.725v3.2012c0 1.3151-.659 1.9693-1.971 1.9693h-1.969c-1.315 0-1.97-.6542-1.97-1.9693v-3.2012h1.721v3.2012c0 .6564.411.986 1.235.986.818 0 1.229-.3296 1.229-.986z"/><path d="m213.277 33.6655h-1.232c-.821 0-1.229.3295-1.229.9878v1.2295c0 .6565.408.9856 1.229.9856h1.232zm-2.216 4.1884c-1.315 0-1.971-.6582-1.971-1.9711v-1.2295c0-1.3147.656-1.9711 1.971-1.9711h2.216v-1.7235h1.719l.004 6.8952z"/></g></svg>

<?xml version="1.0" encoding="UTF-8"?>
<svg width="215px" height="51px" viewBox="0 0 215 51" version="1.1" xmlns="http://www.w3.org/2000/svg" xmlns:xlink="http://www.w3.org/1999/xlink">
    <!-- Generator: Sketch 44.1 (41455) - http://www.bohemiancoding.com/sketch -->
    <title>logo-stackscale</title>
    <desc>Created with Sketch.</desc>
    <defs></defs>
    <g id="Page-1" stroke="none" stroke-width="1" fill="none" fill-rule="evenodd">
        <g id="logo-stackscale" fill="#FFFFFF">
            <g id="Page-1">
                <path d="M21.6685,0.3498 L1.9108,8.2144 C-0.2607,9.3395 -0.3336,11.3665 2.4965,12.773 L19.2535,22.1967 C20.3584,22.7496 21.2462,24.216 21.2282,25.4644 L21.0486,40.4426 C21.0301,41.6929 20.2166,42.1012 19.2337,41.3557 L7.6773,32.5902 C6.6935,31.8442 5.8606,30.2184 5.8268,28.9726 L5.5351,21.0522 C5.4685,20.4025 5.1339,19.8785 4.4667,19.4962 L0,16.8795 L0.4781,31.7942 C0.5146,33.0364 1.3462,34.6662 2.3299,35.4118 L21.8189,50.1914 C22.8022,50.9356 24.428,50.9536 25.4275,50.2373 C26.2973,49.6389 26.6755,48.6408 26.644,47.3198 L26.6566,25.4797 C26.6719,24.2335 27.5809,22.7613 28.6781,22.203 L40.6947,16.12 C41.7924,15.5675 42.6419,16.1335 42.5771,17.3765 L41.9481,29.448 C41.8869,30.6961 41.6704,31.9153 40.6677,32.6366 L32.479,38.4418 C31.4538,39.2175 30.6961,40.1927 30.7609,41.7681 L30.7609,46.4189 L45.2933,35.9705 C46.2951,35.2515 47.1649,33.6451 47.2293,32.4047 L48.3225,11.3039 C48.3225,9.7691 47.4958,8.6773 46.3541,8.2333 C45.5567,7.9249 44.2065,7.9916 43.0971,8.5404 L25.9813,17.4148 C24.8863,17.969 23.0868,17.969 21.9855,17.4148 L11.4727,12.126 C10.3737,11.5758 10.407,10.7433 11.5551,10.2949 L21.6996,6.2528 C22.8481,5.798 24.7152,5.7877 25.8656,6.2285 L31.6726,8.3603 C32.3133,8.6228 32.8261,8.5269 33.2952,8.3063 L39.3179,5.4617 L25.8313,0.3237 C25.2686,0.1081 24.5306,0 23.7896,0 C23.0219,0 22.2511,0.1162 21.6685,0.3498 Z" id="Fill-1" fill-opacity="0.699999988"></path>
                <path d="M65.3597,17.0183 C69.1605,17.0183 71.06,18.5072 71.06,21.4841 L71.06,22.2287 C71.06,25.207 69.1605,26.695 65.3597,26.695 L55.8608,26.695 L55.8608,23.7176 L64.7271,23.7176 C65.9931,23.7176 66.6279,23.2219 66.6279,22.2287 L66.6279,21.4841 C66.6279,20.4918 65.9931,19.9961 64.7271,19.9961 L61.5606,19.9961 C57.7603,19.9961 55.8608,18.5072 55.8608,15.5289 C55.8608,12.5529 57.7603,11.064 61.5606,11.064 L71.06,11.064 L71.06,14.0414 L62.1946,14.0414 C60.9267,14.0414 60.2937,14.5384 60.2937,15.5289 C60.2937,16.5221 60.9267,17.0183 62.1946,17.0183 L65.3597,17.0183 Z" id="Fill-2"></path>
                <path d="M81.9644,11.0681 L81.9644,14.0464 L80.0649,14.0464 L80.0649,20.744 C80.0649,22.7299 81.1203,23.7222 83.2318,23.7222 L83.2318,26.7 L80.6984,26.7 C77.3213,26.7 75.6315,24.715 75.6315,20.744 L75.6315,14.0464 L73.732,14.0464 L73.732,11.0681 L75.6315,11.0681 L75.6315,8.0917 L80.0649,8.0917 L80.0649,11.0681 L81.9644,11.0681 Z" id="Fill-3"></path>
                <path d="M96.6716,19.9815 L92.2395,19.9959 C90.9721,20.045 90.3387,20.542 90.3387,21.4839 L90.3387,22.229 C90.3387,23.2222 90.9721,23.7179 92.2395,23.7179 L96.6716,23.7179 L96.6716,19.9815 Z M101.106,26.6948 L91.6047,26.6948 C87.8061,26.6948 85.9053,25.2068 85.9053,22.229 L85.9053,21.4695 C85.9053,18.552 87.8061,17.0928 91.6047,17.0928 L94.7721,17.0928 C96.0381,17.0928 96.6716,16.5724 96.6716,15.5292 C96.6716,14.5382 96.0381,14.0412 94.7721,14.0412 L85.9053,14.0412 L85.9053,11.0643 L95.4055,11.0643 C99.205,11.0643 101.106,12.6761 101.106,15.9011 L101.106,26.6948 Z" id="Fill-4"></path>
                <path d="M117.076,23.7178 L117.088,26.6947 L108.843,26.6947 C105.466,26.6947 103.777,24.7101 103.777,20.74 L103.777,17.0184 C103.777,13.0479 105.466,11.0642 108.843,11.0642 L117.088,11.0642 L117.088,14.0411 L111.378,14.0411 C109.265,14.0411 108.211,15.0334 108.211,17.0184 L108.211,20.74 C108.211,22.7251 109.265,23.7178 111.378,23.7178 L117.076,23.7178 Z" id="Fill-5"></path>
                <polygon id="Fill-6" points="124.182 22.9886 124.182 26.6814 119.75 26.6814 119.75 22.2156 119.762 5.8386 124.182 5.8386 124.182 17.6161 130.515 11.0504 135.581 11.0504 127.525 19.4021 135.581 26.6814 130.515 26.6814 125.17 21.8424"></polygon>
                <path d="M147.12,17.0183 C150.919,17.0183 152.819,18.5072 152.819,21.4841 L152.819,22.2287 C152.819,25.207 150.919,26.695 147.12,26.695 L137.619,26.695 L137.619,23.7176 L146.486,23.7176 C147.753,23.7176 148.385,23.2219 148.385,22.2287 L148.385,21.4841 C148.385,20.4918 147.753,19.9961 146.486,19.9961 L143.321,19.9961 C139.52,19.9961 137.619,18.5072 137.619,15.5289 C137.619,12.5529 139.52,11.064 143.321,11.064 L152.819,11.064 L152.819,14.0414 L143.955,14.0414 C142.687,14.0414 142.054,14.5384 142.054,15.5289 C142.054,16.5221 142.687,17.0183 143.955,17.0183 L147.12,17.0183 Z M168.791,23.7178 L168.803,26.6947 L160.559,26.6947 C157.181,26.6947 155.491,24.7101 155.491,20.74 L155.491,17.0184 C155.491,13.0479 157.181,11.0642 160.559,11.0642 L168.803,11.0642 L168.803,14.0411 L163.091,14.0411 C160.98,14.0411 159.926,15.0334 159.926,17.0184 L159.926,20.74 C159.926,22.7251 160.98,23.7178 163.091,23.7178 L168.791,23.7178 Z M186.663,26.6948 L177.164,26.6948 C173.363,26.6948 171.463,25.2068 171.463,22.229 L171.463,21.4695 C171.463,18.552 173.363,17.0928 177.164,17.0928 L180.33,17.0928 C181.597,17.0928 182.23,16.5724 182.23,15.5292 C182.23,14.5382 181.597,14.0412 180.33,14.0412 L171.463,14.0412 L171.463,11.0643 L180.963,11.0643 C184.762,11.0643 186.663,12.6761 186.663,15.9011 L186.663,26.6948 Z M193.769,20.7265 C193.769,22.7116 194.823,23.7043 196.934,23.7043 L196.934,26.6817 L194.402,26.6817 C191.022,26.6817 189.334,24.6975 189.334,20.7265 L189.334,5.8388 L193.769,5.8388 L193.769,20.7265 Z M199.61,15.5293 C199.61,12.5529 201.298,11.0644 204.676,11.0644 L209.107,11.0644 C212.907,11.0644 214.808,12.5529 214.808,15.5293 L214.808,16.274 C214.808,19.2509 212.907,20.7402 209.107,20.7402 L205.943,20.7402 C204.676,20.7402 204.042,21.2355 204.042,22.2287 C204.042,23.2219 204.676,23.718 205.943,23.718 L214.808,23.718 L214.808,26.6949 L205.31,26.6949 C201.509,26.6949 199.61,25.0818 199.61,21.8559 L199.61,15.5293 Z M182.23,19.9815 L177.798,19.9959 C176.53,20.045 175.897,20.542 175.897,21.4839 L175.897,22.229 C175.897,23.2222 176.53,23.7179 177.798,23.7179 L182.23,23.7179 L182.23,19.9815 Z M204.042,17.8372 C204.439,17.7867 204.864,17.762 205.31,17.762 L208.475,17.762 C209.744,17.762 210.376,17.2658 210.376,16.274 L210.376,15.5293 C210.376,14.5384 209.744,14.0413 208.475,14.0413 L205.943,14.0413 C204.676,14.0413 204.042,14.5474 204.042,15.5595 L204.042,17.8372 Z" id="Combined-Shape" fill-opacity="0.699999988"></path>
                <path d="M143.333,36.8793 L144.563,36.8793 C145.384,36.8793 145.795,36.5497 145.795,35.8933 L145.795,34.6619 C145.795,34.0055 145.384,33.6782 144.563,33.6782 L143.333,33.6782 L143.333,36.8793 Z M145.548,32.6922 C146.861,32.6922 147.518,33.349 147.518,34.6619 L147.518,35.8933 C147.518,37.2084 146.861,37.863 145.548,37.863 L143.333,37.863 L143.333,39.5883 L141.612,39.5883 L141.608,32.6922 L145.548,32.6922 Z" id="Fill-12"></path>
                <path d="M149.981,37.8628 L148.258,37.8628 L148.258,32.6924 L152.199,32.6924 C153.512,32.6924 154.17,33.3489 154.17,34.6617 L152.444,34.6617 C152.444,34.0053 152.034,33.678 151.215,33.678 L149.981,33.678 L149.981,37.8628 Z" id="Fill-13"></path>
                <path d="M156.633,37.8542 L154.908,37.8542 L154.908,32.6825 L156.633,32.6825 L156.633,37.8542 Z M155.154,32.1899 C154.989,32.1899 154.908,32.1071 154.908,31.9441 L154.908,31.2048 C154.908,31.0396 154.989,30.9586 155.154,30.9586 L156.385,30.9586 C156.55,30.9586 156.633,31.0396 156.633,31.2048 L156.633,31.9441 C156.633,32.1071 156.55,32.1899 156.385,32.1899 L155.154,32.1899 Z" id="Fill-14"></path>
                <polygon id="Fill-15" points="159.338 37.8628 157.122 32.6924 158.846 32.6924 160.326 36.3874 161.801 32.6924 163.527 32.6924 161.338 37.8628"></polygon>
                <path d="M168.207,35.6411 L166.481,35.6475 C165.99,35.6623 165.744,35.8289 165.744,36.1414 L165.744,36.3872 C165.744,36.7145 165.99,36.8793 166.481,36.8793 L168.207,36.8793 L168.207,35.6411 Z M169.93,37.863 L166.236,37.863 C164.761,37.863 164.021,37.3709 164.021,36.3872 L164.021,36.135 C164.021,35.1702 164.761,34.6867 166.236,34.6867 L167.469,34.6867 C167.961,34.6867 168.207,34.5156 168.207,34.1698 C168.207,33.8407 167.961,33.6782 167.469,33.6782 L164.021,33.6782 L164.021,32.6922 L167.716,32.6922 C169.193,32.6922 169.93,33.2261 169.93,34.2927 L169.93,37.863 Z" id="Fill-16"></path>
                <path d="M173.871,32.6861 L173.871,33.6698 L173.134,33.6698 L173.134,35.8872 C173.134,36.5454 173.542,36.8745 174.363,36.8745 L174.363,37.8587 L173.379,37.8587 C172.066,37.8587 171.408,37.2001 171.408,35.8872 L171.408,33.6698 L170.671,33.6698 L170.671,32.6861 L171.408,32.6861 L171.408,31.7028 L173.134,31.7028 L173.134,32.6861 L173.871,32.6861 Z" id="Fill-17"></path>
                <path d="M176.826,34.9326 C176.981,34.916 177.143,34.9074 177.321,34.9074 L178.552,34.9074 C179.044,34.9074 179.289,34.7453 179.289,34.4158 L179.289,34.1699 C179.289,33.8408 179.044,33.6778 178.552,33.6778 L177.567,33.6778 C177.072,33.6778 176.826,33.8449 176.826,34.178 L176.826,34.9326 Z M175.103,34.1699 C175.103,33.1844 175.76,32.6923 177.072,32.6923 L178.798,32.6923 C180.275,32.6923 181.016,33.1844 181.016,34.1699 L181.016,34.4158 C181.016,35.3995 180.275,35.8934 178.798,35.8934 L177.567,35.8934 C177.072,35.8934 176.826,36.0582 176.826,36.3873 C176.826,36.7146 177.072,36.8794 177.567,36.8794 L181.016,36.8794 L181.016,37.8627 L177.321,37.8627 C175.843,37.8627 175.103,37.3292 175.103,36.2621 L175.103,34.1699 Z" id="Fill-18"></path>
                <path d="M191.357,36.8793 L191.364,37.863 L188.155,37.863 C186.842,37.863 186.187,37.2084 186.187,35.8933 L186.187,34.6619 C186.187,33.349 186.842,32.6922 188.155,32.6922 L191.364,32.6922 L191.364,33.6782 L189.143,33.6782 C188.319,33.6782 187.909,34.0055 187.909,34.6619 L187.909,35.8933 C187.909,36.5497 188.319,36.8793 189.143,36.8793 L191.357,36.8793 Z" id="Fill-19"></path>
                <path d="M193.821,35.883 C193.821,36.5394 194.231,36.8685 195.053,36.8685 L195.053,37.8541 L194.069,37.8541 C192.752,37.8541 192.098,37.1958 192.098,35.883 L192.098,30.9584 L193.821,30.9584 L193.821,35.883 Z" id="Fill-20"></path>
                <path d="M199.979,34.6618 C199.979,34.0053 199.566,33.678 198.745,33.678 C197.925,33.678 197.516,34.0053 197.516,34.6618 L197.516,35.8931 C197.516,36.5496 197.925,36.8791 198.745,36.8791 C199.566,36.8791 199.979,36.5496 199.979,35.8931 L199.979,34.6618 Z M197.761,37.8629 C196.448,37.8629 195.79,37.2083 195.79,35.8931 L195.79,34.6618 C195.79,33.3489 196.448,32.692 197.761,32.692 L199.979,32.692 C201.125,32.692 201.702,33.3489 201.702,34.6618 L201.702,35.8931 C201.702,37.2083 201.044,37.8629 199.731,37.8629 L197.761,37.8629 Z" id="Fill-21"></path>
                <path d="M206.627,32.6922 L208.352,32.6922 L208.352,35.8934 C208.352,37.2085 207.693,37.8627 206.381,37.8627 L204.412,37.8627 C203.097,37.8627 202.442,37.2085 202.442,35.8934 L202.442,32.6922 L204.163,32.6922 L204.163,35.8934 C204.163,36.5498 204.574,36.8794 205.398,36.8794 C206.216,36.8794 206.627,36.5498 206.627,35.8934 L206.627,32.6922 Z" id="Fill-22"></path>
                <path d="M213.277,33.6655 L212.045,33.6655 C211.224,33.6655 210.816,33.995 210.816,34.6533 L210.816,35.8828 C210.816,36.5393 211.224,36.8684 212.045,36.8684 L213.277,36.8684 L213.277,33.6655 Z M211.061,37.8539 C209.746,37.8539 209.09,37.1957 209.09,35.8828 L209.09,34.6533 C209.09,33.3386 209.746,32.6822 211.061,32.6822 L213.277,32.6822 L213.277,30.9587 L214.996,30.9587 L215,37.8539 L211.061,37.8539 Z" id="Fill-23"></path>
            </g>
        </g>
    </g>
</svg>
